X:223
T:Planxty Morarar
Z: id:dc-polka-16
M:2/4
L:1/8
K:G Major
de|fefg agg|efg fed|fed cBA:|!
eaa bge|fdB BBB|BAB dBG|BdB GBA|GAB|AGA Bd|ed ded|:|!